receipt-text-send.svg

<svg fill="currentColor" viewBox="0 0 24 24"><path d="M4.5 20.5 3 22V2l1.5 1.5L6 2l1.5 1.5L9 2l1.5 1.5L12 2l1.5 1.5L15 2l1.5 1.5L18 2l1.5 1.5L21 2v12.26l-3-1.5V11H6v2h6v2H6v2h6v5l-1.5-1.5L9 22l-1.5-1.5L6 22zM6 7v2h12V7zm8 6 10 5-10 5v-4l4-1-4-1z"/></svg>

<svg  viewBox="0 0 24 24" fill="currentColor"><path  d="M4.5 20.5L3 22V2L4.5 3.5L6 2L7.5 3.5L9 2L10.5 3.5L12 2L13.5 3.5L15 2L16.5 3.5L18 2L19.5 3.5L21 2V14.26L18 12.76V11H6V13H12V15H6V17H12V22L10.5 20.5L9 22L7.5 20.5L6 22L4.5 20.5M6 7V9H18V7H6M14 13L24 18L14 23V19L18 18L14 17V13Z"/></svg>
